svgs/duotone/high-definition.svg

<svg xmlns="http://www.w3.org/2000/svg" viewBox="0 0 576 512"><!-- Font Awesome Pro 6.0.0-alpha2 by @fontawesome - https://fontawesome.com License - https://fontawesome.com/license (Commercial License) --><defs><style>.fa-secondary{opacity:.4}</style></defs><path d="M512 32H64C28.654 32 0 60.652 0 96V416C0 451.346 28.654 480 64 480H512C547.346 480 576 451.346 576 416V96C576 60.652 547.346 32 512 32ZM272 328C272 341.25 261.25 352 248 352S224 341.25 224 328V280H160V328C160 341.25 149.25 352 136 352S112 341.25 112 328V184C112 170.75 122.75 160 136 160S160 170.75 160 184V232H224V184C224 170.75 234.75 160 248 160S272 170.75 272 184V328ZM384 352H328C314.75 352 304 341.25 304 328V184C304 170.75 314.75 160 328 160H384C436.938 160 480 203.062 480 256S436.938 352 384 352ZM384 208H352V304H384C410.469 304 432 282.469 432 256S410.469 208 384 208Z" class="fa-secondary"/><path d="M248 160C234.75 160 224 170.75 224 184V232H160V184C160 170.75 149.25 160 136 160S112 170.75 112 184V328C112 341.25 122.75 352 136 352S160 341.25 160 328V280H224V328C224 341.25 234.75 352 248 352S272 341.25 272 328V184C272 170.75 261.25 160 248 160ZM384 160H328C314.75 160 304 170.75 304 184V328C304 341.25 314.75 352 328 352H384C436.938 352 480 308.938 480 256S436.938 160 384 160ZM384 304H352V208H384C410.469 208 432 229.531 432 256S410.469 304 384 304Z" class="fa-primary"/></svg>

<svg xmlns="http://www.w3.org/2000/svg" viewBox="0 0 576 512"><!--! Font Awesome Pro 6.0.0-alpha3 by @fontawesome - https://fontawesome.com License - https://fontawesome.com/license (Commercial License) --><defs><style>.fa-secondary{opacity:.4}</style></defs><path class="fa-primary" d="M248 160C234.8 160 224 170.8 224 184v48H160v-48C160 170.8 149.3 160 136 160S112 170.8 112 184v144C112 341.3 122.8 352 136 352S160 341.3 160 328v-48h64v48C224 341.3 234.8 352 248 352s24-10.75 24-24v-144C272 170.8 261.3 160 248 160zM384 160h-56c-13.25 0-24 10.75-24 24v144c0 13.25 10.75 24 24 24H384c52.94 0 96-43.06 96-96S436.9 160 384 160zM384 304h-32v-96h32c26.47 0 48 21.53 48 48S410.5 304 384 304z"/><path class="fa-secondary" d="M512 32H64C28.65 32 0 60.65 0 96v320c0 35.35 28.65 64 64 64h448c35.35 0 64-28.65 64-64V96C576 60.65 547.3 32 512 32zM272 328C272 341.3 261.3 352 248 352S224 341.3 224 328v-48H160v48C160 341.3 149.3 352 136 352S112 341.3 112 328v-144C112 170.8 122.8 160 136 160S160 170.8 160 184v48h64v-48C224 170.8 234.8 160 248 160S272 170.8 272 184V328zM384 352h-56c-13.25 0-24-10.75-24-24v-144C304 170.8 314.8 160 328 160H384c52.94 0 96 43.06 96 96S436.9 352 384 352zM384 208h-32v96h32c26.47 0 48-21.53 48-48S410.5 208 384 208z"/></svg>
